!!!COM: Music21
!!!OTL: Marcha procesional de Vilalba
!!!OMV: pezas_marchas_marcha-procesional-de-vilalba-1_marcha-procesional-de-vilalba-partitura.musicxml
**kern
*I"Gaita
*I'Bag
*clefG^2
*k[]
*M3/8
*MM90
=1
!LO:TX:a:t=[quarter-dot]=60
4r
8cc
=
16ccLL
16b
16cc
16dd
16ee
16ffJJ
=
8ggL
16eeL
16gg
16ee
16ggJJ
=
8ffL
16ddL
16ff
16dd
16ffJJ
=
8eeL
8cc
8ccJ
=
16ccLL
16b
16cc
16dd
16ee
16ffJJ
=
8ggL
16eeL
16gg
16ee
16ggJJ
=
16ffLL
16aa
16gg
16ff
16ee
16ddJJ
!!linebreak:original
=
4cc
8gg
=||
8aaL
16ffL
16aa
16ff
16aaJJ
=
8ggL
16eeL
16gg
16ee
16ggJJ
=
8ffL
16ddL
16ff
16dd
16ffJJ
=
8eeL
8cc
8ggJ
=
8aaL
16ffL
16aa
16ff
16aaJJ
=
8ggL
16eeL
16gg
16ee
16ggJJ
=
16ffLL
16aa
16ff
16dd
16b
16ddJJ
=
4.cc
==
*-
